papirus/16x16/apps/qbittorrent.svg

<?xml version="1.0" encoding="UTF-8" standalone="no"?>
<svg id="svg2817" xmlns:rdf="http://www.w3.org/1999/02/22-rdf-syntax-ns#" xmlns="http://www.w3.org/2000/svg" height="16" width="16" version="1.0" xmlns:cc="http://creativecommons.org/ns#" xmlns:dc="http://purl.org/dc/elements/1.1/">
 <metadata id="metadata57">
  <rdf:RDF>
   <cc:Work rdf:about="">
    <dc:format>image/svg+xml</dc:format>
    <dc:type rdf:resource="http://purl.org/dc/dcmitype/StillImage"/>
    <dc:title/>
   </cc:Work>
  </rdf:RDF>
 </metadata>
 <defs id="defs2819">
  <clipPath id="clipPath4186" clipPathUnits="userSpaceOnUse">
   <circle id="path4188" style="color:#000000" cy="26" cx="286" r="10" fill="url(#linearGradient4190)"/>
  </clipPath>
 </defs>
 <circle id="path4240" opacity="0" style="color:#000000" stroke-width=".45455" clip-path="url(#clipPath4186)" transform="matrix(1.4,0,0,1.4,-384.4,-36.4)" cy="26" cx="286" r="10"/>
 <circle id="path4242" opacity="0" style="color:#000000" stroke-width=".90909" clip-path="url(#clipPath4186)" transform="matrix(1.4,0,0,1.4,-384.4,-36.4)" cy="26" cx="286" r="10"/>
 <circle id="path4230" style="color:#000000" cy="8" cx="8" r="8" fill="#2f67ba"/>
 <path id="path4223" d="m4.5 6a2.5 2.5 0 0 0 -2.5 2.5 2.5 2.5 0 0 0 2.5 2.5 2.5 2.5 0 0 0 1.5 -0.504v4.504h1v-6.5-2.5h-1v0.50195a2.5 2.5 0 0 0 -1.5 -0.502zm0 1a1.5 1.5 0 0 1 1.5 1.5 1.5 1.5 0 0 1 -1.5 1.5 1.5 1.5 0 0 1 -1.5 -1.5 1.5 1.5 0 0 1 1.5 -1.5z" fill="#7fc1de"/>
 <path id="path4233" d="m11.5 11a2.5 2.5 0 0 0 2.5 -2.5 2.5 2.5 0 0 0 -2.5 -2.5 2.5 2.5 0 0 0 -1.5 0.5039v-4.5039h-1v6.5 2.5h1v-0.50195a2.5 2.5 0 0 0 1.5 0.502zm0-1a1.5 1.5 0 0 1 -1.5 -1.5 1.5 1.5 0 0 1 1.5 -1.5 1.5 1.5 0 0 1 1.5 1.5 1.5 1.5 0 0 1 -1.5 1.5z" fill="#fff"/>
</svg>

<?xml version="1.0" encoding="UTF-8" standalone="no"?>
<svg
   xmlns:dc="http://purl.org/dc/elements/1.1/"
   xmlns:cc="http://creativecommons.org/ns#"
   xmlns:rdf="http://www.w3.org/1999/02/22-rdf-syntax-ns#"
   xmlns:svg="http://www.w3.org/2000/svg"
   xmlns="http://www.w3.org/2000/svg"
   version="1.0"
   width="16"
   height="16"
   id="svg2817">
  <metadata
     id="metadata57">
    <rdf:RDF>
      <cc:Work
         rdf:about="">
        <dc:format>image/svg+xml</dc:format>
        <dc:type
           rdf:resource="http://purl.org/dc/dcmitype/StillImage" />
        <dc:title></dc:title>
      </cc:Work>
    </rdf:RDF>
  </metadata>
  <defs
     id="defs2819">
    <clipPath
       clipPathUnits="userSpaceOnUse"
       id="clipPath4186">
      <circle
         r="10"
         cx="286"
         cy="26"
         style="color:#000000;fill:url(#linearGradient4190)"
         id="path4188" />
    </clipPath>
  </defs>
  <circle
     r="10"
     cx="286"
     cy="26"
     transform="matrix(1.4,0,0,1.4,-384.4,-36.4)"
     clip-path="url(#clipPath4186)"
     style="color:#000000;opacity:0;stroke-width:0.45455"
     id="path4240" />
  <circle
     r="10"
     cx="286"
     cy="26"
     transform="matrix(1.4,0,0,1.4,-384.4,-36.4)"
     clip-path="url(#clipPath4186)"
     style="color:#000000;opacity:0;stroke-width:0.90908998"
     id="path4242" />
  <circle
     r="8"
     cy="8"
     cx="8"
     style="color:#000000;fill:#2f67ba;fill-opacity:1"
     id="path4230" />
  <path
     id="path4223"
     d="m 4.5,6.0000004 a 2.5,2.5 0 0 0 -2.5,2.5 A 2.5,2.5 0 0 0 4.5,11 2.5,2.5 0 0 0 6,10.496094 L 6,15 l 1,0 0,-6.4999996 0,-2.5 -1,0 0,0.5019531 A 2.5,2.5 0 0 0 4.5,6.0000004 Z m 0,1 a 1.5,1.5 0 0 1 1.5,1.5 A 1.5,1.5 0 0 1 4.5,10 1.5,1.5 0 0 1 3,8.5000004 a 1.5,1.5 0 0 1 1.5,-1.5 z"
     style="opacity:1;fill:#7fc1de;fill-opacity:1;stroke:none;stroke-width:4;stroke-linecap:round;stroke-linejoin:round;stroke-miterlimit:4;stroke-dasharray:none;stroke-opacity:1" />
  <path
     style="opacity:1;fill:#ffffff;fill-opacity:1;stroke:none;stroke-width:4;stroke-linecap:round;stroke-linejoin:round;stroke-miterlimit:4;stroke-dasharray:none;stroke-opacity:1"
     d="M 11.5,11 A 2.5,2.5 0 0 0 14,8.5 2.5,2.5 0 0 0 11.5,6.0000004 2.5,2.5 0 0 0 10,6.503906 l 0,-4.5039056 -1,0 L 9,8.5 9,11 l 1,0 0,-0.501953 A 2.5,2.5 0 0 0 11.5,11 Z m 0,-1 A 1.5,1.5 0 0 1 10,8.5 1.5,1.5 0 0 1 11.5,7 1.5,1.5 0 0 1 13,8.5 1.5,1.5 0 0 1 11.5,10 Z"
     id="path4233" />
</svg>
